X:13
T:Archie A. MacNeil March
R:march
C:Bruce Osborne (Aug. 2005)
Z:abc by bosborne@kos.net
M:4/4
L:1/8
K:Fmaj
C3/2D/ |\
F2 F2 F2 A3/2c/ |\
d3/2c/A3/2c/ F2 E3/2F/ |\
G2 C2 C2 E3/2F/ |\
G3/2F/G3/2A/ F2 C3/2D/ |\
F2 F2 F2 A3/2c/ |\
d3/2c/A3/2c/ F2 E3/2F/ |\
G2 C2 C2 E3/2F/ |\
G3/2F/G3/2A/ F2 :: A3/2B/ |\
c3/2f/e3/2f/ a3/2f/e3/2f/ |\
c3/2d/c3/2A/ F2 G3/2A/ |\
B3/2A/B3/2c/ e3/2f/e3/2d/ |\
c3/2d/c3/2B/ A2 A3/2B/ |\
c3/2f/e3/2f/ a3/2f/e3/2f/ |\
c3/2d/c3/2A/ F2 G3/2A/ |\
B3/2A/B3/2c/ e3/2f/e3/2d/ |\
c3/2B/G3/2E/ F2 :|
